!! 00000] TT[WS
!!!OTL: Guanggunr kuqi
!!!ARE: Asia, China, Shanxi Xingxian
!! Ethnic Group: Han
!! WII, 146 (2)
!!!SCT: J0622
!!!YEM: Copyright 1995, estate of Helmut Schaffrath.
**kern
*ICvox
*Ivox
*M2/4
*k[b-e-a-]
*E-:
{8cc
16cc
16cc
8cc
8gg
=1
8ff
8ee-
4cc
=2
8b-
8cc
8ee-
8gg
=3
8ff
8ee-
4cc}
=4
{8cc
8cc
8cc
8gg
=5
8ff
8ee-
8ff
8ff
=6
8cc
8ee-
8b-
8a-
=7
4f
4ff
=8
8a-
8b-
8cc
8ee-
=9
8b-
8a-
4f}
==
!!!AGN: Xiaodiao. Qingge, Aisu
!!!ONB: ESAC (Essen Associative Code) Database: CHINA
!!!AMT: simple duple
!!!AIN: vox
!!!EED: Helmut Schaffrath
!!!EEV: 1.0
*-
